X: 75
T: Missa Incessament / Credo
N: Derived from Rue1016c-Missa_Incessament-Credo.krn
C: Pierre de la Rue
%%abc-version 2.0
%%abcx-abcm2ps-target-version 5.9.1 (29 Sep 2008)
%%abc-creator hum2abc beta
%%abcx-conversion-date 2019/02/17 08:01:12
%%abc-edited-by Jesse Rodin
%%abc-edited-by Chris Gage 10-23-2012
%%abcx-initial-encoding-date 2012/11/11/
%%humdrum-veritas 3924197639
%%humdrum-veritas-data 3923234467
%%linebreak <none>
%%barnumbers 0
L: 1/4
M: 2/1
Q: 1/2=120
V: 1 clef=treble
V: 2 clef=treble-8
V: 3 clef=treble-8
V: 4 clef=bass
V: 5 clef=bass
K: C
[V:1] z8 | 
[V:2] z8 | 
[V:3] G8 | 
[V:4] z8 | 
[V:5] z8 | 
[V:1] z8 | 
[V:2] z8 | 
[V:3] G4G4- | 
[V:4] z8 | 
[V:5] z8 | 
[V:1] z8 | 
[V:2] g8 | 
[V:3] G4G4 | 
[V:4] z8 | 
[V:5] z8 | 
[V:1] z8 | 
[V:2] g4g4- | 
[V:3] E4C4 | 
[V:4] z8 | 
[V:5] z8 | 
[V:1] G8 | 
[V:2] g4g4 | 
[V:3] G3AB2c2 | 
[V:4] z8 | 
[V:5] z8 | 
[V:1] G4G4- | 
[V:2] e3fd4 | 
[V:3] G2c4B2 | 
[V:4] z8 | 
[V:5] z8 | 
[V:1] G4G4 | 
[V:2] c6BA | 
[V:3] c4C3D | 
[V:4] z8 | 
[V:5] z8 | 
[V:1] E3FD4 | 
[V:2] G2c4B2 | 
[V:3] E2C2G4 | 
[V:4] z8 | 
[V:5] z8 | 
[V:1] C4z2C2 | 
[V:2] c8 | 
[V:3] C3DE2F2 | 
[V:4] z8 | 
[V:5] z8 | 
[V:1] C4C4 | 
[V:2] z4G4 | 
[V:3] C2F4E2 | 
[V:4] z8 | 
[V:5] z8 | 
[V:1] C3DE2F2 | 
[V:2] A3Bc2d2 | 
[V:3] F4z4 | 
[V:4] z8 | 
[V:5] z8 | 
[V:1] G2A4G2 | 
[V:2] e2f4e2 | 
[V:3] z4C4 | 
[V:4] z8 | 
[V:5] z8 | 
[V:1] A8 | 
[V:2] f8 | 
[V:3] F3GA2B2 | 
[V:4] z8 | 
[V:5] z8 | 
[V:1] A4A4 | 
[V:2] e2d2e4 | 
[V:3] c2d4^c2 | 
[V:4] z8 | 
[V:5] z8 | 
[V:1] F3GA2B2 | 
[V:2] d8 | 
[V:3] d6cB | 
[V:4] z8 | 
[V:5] z8 | 
[V:1] c2d4c2 | 
[V:2] z4z2A2 | 
[V:3] A2G2A4 | 
[V:4] z8 | 
[V:5] z8 | 
[V:1] B2d4cB | 
[V:2] B3cd2e2 | 
[V:3] G3AB2c2 | 
[V:4] z8 | 
[V:5] z8 | 
[V:1] A2G2A4 | 
[V:2] f2g4^f2 | 
[V:3] d2e2d4 | 
[V:4] z8 | 
[V:5] z8 | 
[V:1] G2D2GABc | 
[V:2] g6fe | 
[V:3] G8- | 
[V:4] z8 | 
[V:5] G,,6G,,2 | 
[V:1] d2c4B2 | 
[V:2] fedcd4 | 
[V:3] G8 | 
[V:4] z8 | 
[V:5] G,,4G,,4 | 
[V:1] c8 | 
[V:2] c8- | 
[V:3] z8 | 
[V:4] C,6C,2 | 
[V:5] C,3D,E,2F,2 | 
[V:1] z8 | 
[V:2] c8 | 
[V:3] z8 | 
[V:4] C,4C,4 | 
[V:5] G,2A,4G,2 | 
[V:1] z8 | 
[V:2] z8 | 
[V:3] z8 | 
[V:4] F,3G,A,2B,2 | 
[V:5] A,6G,F, | 
[V:1] z8 | 
[V:2] z8 | 
[V:3] z8 | 
[V:4] C2D4^C2 | 
[V:5] E,2D,2E,4 | 
[V:1] z8 | 
[V:2] z8 | 
[V:3] z8 | 
[V:4] D6CB, | 
[V:5] D,2D,2D,E,F,G, | 
[V:1] z8 | 
[V:2] z8 | 
[V:3] z8 | 
[V:4] A,2G,2A,4 | 
[V:5] A,2G,4^F,2 | 
[V:1] G6G2 | 
[V:2] z8 | 
[V:3] z8 | 
[V:4] G,2G,2G,A,B,C | 
[V:5] G,8- | 
[V:1] G4G4 | 
[V:2] z4d4 | 
[V:3] z4G4 | 
[V:4] D2C4B,2 | 
[V:5] G,8 | 
[V:1] E3FG2A2- | 
[V:2] e2g4f2- | 
[V:3] C3DE2F2- | 
[V:4] C8- | 
[V:5] z8 | 
[V:1] A2c4BA | 
[V:2] f2ede2f2 | 
[V:3] FGABA4 | 
[V:4] C8 | 
[V:5] z8 | 
[V:1] B2G2d4 | 
[V:2] g2e2d4 | 
[V:3] G2c4B2 | 
[V:4] z8 | 
[V:5] z8 | 
[V:1] z2G4G2 | 
[V:2] c4e4 | 
[V:3] c4z2C2 | 
[V:4] z8 | 
[V:5] z8 | 
[V:1] E3FG2A2- | 
[V:2] e2g4f2- | 
[V:3] C3DE2F2- | 
[V:4] z8 | 
[V:5] z8 | 
[V:1] A2c4BA | 
[V:2] f2ede2f2 | 
[V:3] FGABA4 | 
[V:4] z8 | 
[V:5] z8 | 
[V:1] B2G2d4- | 
[V:2] g8- | 
[V:3] G2d4c2 | 
[V:4] z8 | 
[V:5] G,4G,4 | 
[V:1] d2c2B2A2 | 
[V:2] g8 | 
[V:3] B2A2G4- | 
[V:4] z8 | 
[V:5] G,6F,2 | 
[V:1] G2F2E4- | 
[V:2] z8 | 
[V:3] G4c4- | 
[V:4] C4C4 | 
[V:5] E,2D,2C,2B,,2 | 
[V:1] E4c4- | 
[V:2] z8 | 
[V:3] c2B2A2G2 | 
[V:4] C6B,2 | 
[V:5] A,,8- | 
[V:1] c2B2A2G2 | 
[V:2] z4c4 | 
[V:3] F2EDC4 | 
[V:4] A,2G,2F,2E,2 | 
[V:5] A,,8 | 
[V:1] F2E2DEFG | 
[V:2] f6e2 | 
[V:3] D4A4 | 
[V:4] D,8- | 
[V:5] z8 | 
[V:1] ADG4^F2 | 
[V:2] d2c2B2A2 | 
[V:3] d4d2d2 | 
[V:4] D,8 | 
[V:5] z4D,4 | 
[V:1] G8- | 
[V:2] G8- | 
[V:3] B8 | 
[V:4] z8 | 
[V:5] G,6F,2 | 
[V:1] G8 | 
[V:2] G8 | 
[V:3] z8 | 
[V:4] z4G,4 | 
[V:5] E,2D,2C,2B,,2 | 
[V:1] z8 | 
[V:2] z8 | 
[V:3] z8 | 
[V:4] C6B,2 | 
[V:5] A,,3B,,C,D,E,2 | 
[V:1] z8 | 
[V:2] z8 | 
[V:3] z8 | 
[V:4] A,2G,2F,2E,2 | 
[V:5] A,,2D,4C,2 | 
[V:1] z8 | 
[V:2] z8 | 
[V:3] z8 | 
[V:4] D,3E,F,G,A,2 | 
[V:5] D,4D,2D,2- | 
[V:1] z8 | 
[V:2] z8 | 
[V:3] z8 | 
[V:4] D,2G,4^F,2 | 
[V:5] D,2C,B,,A,,4 | 
[V:1] D8 | 
[V:2] B8 | 
[V:3] z4D4 | 
[V:4] G,4G,2G,2- | 
[V:5] G,,4G,,4 | 
[V:1] D4D4 | 
[V:2] B4B4 | 
[V:3] D4G4 | 
[V:4] G,2F,E,D,4 | 
[V:5] G,,4G,,4 | 
[V:1] E4E4- | 
[V:2] c2c4BA | 
[V:3] G4E4 | 
[V:4] C,4C,4 | 
[V:5] C,4C,4- | 
[V:1] E2C2C4- | 
[V:2] G2A4A2- | 
[V:3] E4z2c2- | 
[V:4] C,4C,4 | 
[V:5] C,2A,,2A,,4- | 
[V:1] C4C4 | 
[V:2] A2A4A2- | 
[V:3] cBA3GA2- | 
[V:4] F,4F,4- | 
[V:5] A,,4A,,4 | 
[V:1] D4D4 | 
[V:2] A2A6 | 
[V:3] AGFEF4 | 
[V:4] F,2D,2D,4- | 
[V:5] D,4D,4 | 
[V:1] D4D4- | 
[V:2] B6c2 | 
[V:3] G6FE | 
[V:4] D,4D,4 | 
[V:5] G,,4G,,4- | 
[V:1] D4E4- | 
[V:2] d4c4 | 
[V:3] D2G4E2- | 
[V:4] G,4G,4 | 
[V:5] G,,4C,4- | 
[V:1] E2F2G4 | 
[V:2] e8- | 
[V:3] E2A4G2 | 
[V:4] C,4C,4- | 
[V:5] C,2D,2E,4 | 
[V:1] C2A3GF2 | 
[V:2] e4c4 | 
[V:3] A8- | 
[V:4] C,4F,4- | 
[V:5] A,,8- | 
[V:1] E2D4^C2 | 
[V:2] f4e4 | 
[V:3] A8- | 
[V:4] F,2G,2A,4 | 
[V:5] A,,8 | 
[V:1] D4z2A2 | 
[V:2] d8- | 
[V:3] A8 | 
[V:4] D,8- | 
[V:5] z8 | 
[V:1] _B2A3GF2 | 
[V:2] d8 | 
[V:3] z4A4 | 
[V:4] D,8 | 
[V:5] z8 | 
[V:1] E2A3GF2 | 
[V:2] z8 | 
[V:3] c4c2A2- | 
[V:4] z8 | 
[V:5] A,,4A,,4 | 
[V:1] E2D4^C2 | 
[V:2] z8 | 
[V:3] AGF2E4 | 
[V:4] z8 | 
[V:5] A,,8 | 
[V:1] D8- | 
[V:2] z2d3cB2 | 
[V:3] D2A2B2d2- | 
[V:4] D,4D,4 | 
[V:5] z4z2D,2 | 
[V:1] D8 | 
[V:2] A2G4^F2 | 
[V:3] dcB2A4 | 
[V:4] D,8 | 
[V:5] B,,2G,,2D,4 | 
[V:1] z8 | 
[V:2] G2d2B2G2 | 
[V:3] G8 | 
[V:4] z4z2G,2 | 
[V:5] G,,8 | 
[V:1] z8 | 
[V:2] c4B2g2- | 
[V:3] z2G2E2C2 | 
[V:4] E,2C,2G,4 | 
[V:5] z4z2G,2 | 
[V:1] z8 | 
[V:2] g2g4g2 | 
[V:3] G4C4 | 
[V:4] C,8 | 
[V:5] E,2C,2G,2G,2 | 
[V:1] z8 | 
[V:2] e2e2c2c2 | 
[V:3] z2c2A2F2- | 
[V:4] z4z2C2 | 
[V:5] A,2A,2A,3G, | 
[V:1] z8 | 
[V:2] f4g4 | 
[V:3] FGABG4 | 
[V:4] A,2F,2C2C2 | 
[V:5] F,2E,D,E,4 | 
[V:1] z8 | 
[V:2] f8 | 
[V:3] A8 | 
[V:4] D2D2D3C | 
[V:5] D,4z2D,2- | 
[V:1] z8 | 
[V:2] z8 | 
[V:3] z8 | 
[V:4] B,2A,G,A,4 | 
[V:5] D,2E,2F,4 | 
[V:1] z8 | 
[V:2] z8 | 
[V:3] z8 | 
[V:4] G,4z2G,2- | 
[V:5] E,3F,G,A,B,2- | 
[V:1] z8 | 
[V:2] z8 | 
[V:3] z8 | 
[V:4] G,2A,2B,4 | 
[V:5] B,2A,3G,G,2 | 
[V:1] z8 | 
[V:2] z8 | 
[V:3] z8 | 
[V:4] A,3B,CDE2- | 
[V:5] A,2A,2A,2A,2- | 
[V:1] z8 | 
[V:2] z8 | 
[V:3] z8 | 
[V:4] E2D3^CC2 | 
[V:5] A,2G,F,E,4 | 
[V:1] A6A2 | 
[V:2] z2d2d3e | 
[V:3] A6A2 | 
[V:4] D2D2D2D2- | 
[V:5] D,8- | 
[V:1] A4A4 | 
[V:2] f2g4^f2 | 
[V:3] A4d4- | 
[V:4] D2CB,A,4 | 
[V:5] D,8 | 
[V:1] B4G4 | 
[V:2] g4e4 | 
[V:3] d4B4 | 
[V:4] G,8- | 
[V:5] z8 | 
[V:1] z2d4B2 | 
[V:2] d4z2g2 | 
[V:3] G2d2B2G2 | 
[V:4] G,8 | 
[V:5] z8 | 
[V:1] G2c4B2 | 
[V:2] e2c2f3e | 
[V:3] c3BA2G2 | 
[V:4] z8 | 
[V:5] z8 | 
[V:1] A2GFG4 | 
[V:2] c2d4c2 | 
[V:3] F2EDE4 | 
[V:4] z8 | 
[V:5] z8 | 
[V:1] F8 | 
[V:2] d2A2B2A2- | 
[V:3] D8 | 
[V:4] z8 | 
[V:5] z4D,4 | 
[V:1] z8 | 
[V:2] A2d3^c^c2 | 
[V:3] z8 | 
[V:4] z8 | 
[V:5] F,4E,4 | 
[V:1] z8 | 
[V:2] d8- | 
[V:3] z8 | 
[V:4] z4G,4 | 
[V:5] D,4B,,2G,,2- | 
[V:1] z8 | 
[V:2] d8 | 
[V:3] z8 | 
[V:4] B,4A,4 | 
[V:5] G,,2G,4^F,2 | 
[V:1] z4E4 | 
[V:2] z8 | 
[V:3] z4C4 | 
[V:4] G,4E,2C,2- | 
[V:5] G,8 | 
[V:1] G4F4 | 
[V:2] z8 | 
[V:3] E4D4 | 
[V:4] C,2C4B,2 | 
[V:5] z8 | 
[V:1] E2G4E2 | 
[V:2] z4e4 | 
[V:3] CDEFG2C2- | 
[V:4] C8 | 
[V:5] z8 | 
[V:1] C2E2D4 | 
[V:2] g4f4 | 
[V:3] C2c4B2 | 
[V:4] z8 | 
[V:5] z8 | 
[V:1] CDEFG2C2- | 
[V:2] e2g4e2 | 
[V:3] c4C3D | 
[V:4] z8 | 
[V:5] z8 | 
[V:1] C2c4B2 | 
[V:2] c2e2d4 | 
[V:3] E2C2G4 | 
[V:4] z8 | 
[V:5] z4z2G,2 | 
[V:1] c8 | 
[V:2] c4z2c2 | 
[V:3] z2F2A4 | 
[V:4] z8 | 
[V:5] A,4F,4 | 
[V:1] z2G2A4 | 
[V:2] e4c4 | 
[V:3] G4z2F2 | 
[V:4] z4z2C2 | 
[V:5] z2E,2F,2F,2 | 
[V:1] F4z2G2 | 
[V:2] z2f2e2e2 | 
[V:3] A2A2G4 | 
[V:4] D4B,4 | 
[V:5] D,4z2E,2 | 
[V:1] A2A2F4 | 
[V:2] c4z2f2 | 
[V:3] z2F2F2F2 | 
[V:4] z2A,2B,2B,2 | 
[V:5] F,2F,2D,4 | 
[V:1] z4z2A2 | 
[V:2] g2g2e2f2- | 
[V:3] C2G4F2- | 
[V:4] G,4z2A,2 | 
[V:5] E,4C,2D,2- | 
[V:1] d4d4 | 
[V:2] fedcBcdB | 
[V:3] F2E2D4 | 
[V:4] B,2B,2G,4 | 
[V:5] D,C,B,,A,,B,,4 | 
[V:1] c3BA2G2 | 
[V:2] c4f2e2- | 
[V:3] E4z4 | 
[V:4] A,4F,2G,2- | 
[V:5] A,,4z4 | 
[V:1] _BAGFG4 | 
[V:2] e2d4^c2 | 
[V:3] z8 | 
[V:4] G,F,E,D,E,4 | 
[V:5] z8 | 
[V:1] F4z2A2 | 
[V:2] d8 | 
[V:3] z2A2B2c2 | 
[V:4] D,4z4 | 
[V:5] z8 | 
[V:1] B2c2d2d2 | 
[V:2] z8 | 
[V:3] d3cB2B2 | 
[V:4] z8 | 
[V:5] z8 | 
[V:1] c3BA2G2- | 
[V:2] z4z2d2 | 
[V:3] A2F2A2B2 | 
[V:4] z8 | 
[V:5] z8 | 
[V:1] GFEDE4 | 
[V:2] e2f2g2g2 | 
[V:3] c2d4^c2 | 
[V:4] z8 | 
[V:5] z8 | 
[V:1] D3EFGA2- | 
[V:2] f3ed2c2- | 
[V:3] d4z4 | 
[V:4] z8 | 
[V:5] z8 | 
[V:1] A2G4^F2 | 
[V:2] cBAGA4 | 
[V:3] z8 | 
[V:4] z8 | 
[V:5] z4z2D,2 | 
[V:1] G8 | 
[V:2] G4z2d2 | 
[V:3] z4z2G2 | 
[V:4] z8 | 
[V:5] E,2F,2G,2G,2 | 
[V:1] z8 | 
[V:2] d3cB2A2- | 
[V:3] A3GF2E2- | 
[V:4] z4z2G,2 | 
[V:5] F,3E,D,2C,2- | 
[V:1] z4z2A2 | 
[V:2] A2G4^F2 | 
[V:3] E2D4C2 | 
[V:4] A,2B,2C2C2 | 
[V:5] C,B,,A,,G,,A,,4 | 
[V:1] B2c2d2d2 | 
[V:2] G8- | 
[V:3] D8 | 
[V:4] B,8- | 
[V:5] G,,8- | 
[V:1] G6FE | 
[V:2] G8- | 
[V:3] D8- | 
[V:4] B,8- | 
[V:5] G,,8- | 
[V:1] D8 | 
[V:2] G8- | 
[V:3] D8- | 
[V:4] B,8- | 
[V:5] G,,8- | 
[V:1] D8 ||  
[V:2] G8 ||  
[V:3] D8 ||  
[V:4] B,8 ||  
[V:5] G,,8 ||  
[V:1]  [K:C] [K:clef=treble][M:2/1]G8 | 
[V:2]  [K:C] [K:clef=treble-8][M:2/1]d8 | 
[V:3]  [K:C] [K:clef=treble-8][M:2/1]z4G3A | 
[V:4]  [K:C] [K:clef=bass][M:2/1]z8 | 
[V:5]  [K:C] [K:clef=bass][M:2/1]G,8 | 
[V:1] G4G4 | 
[V:2] d4d4 | 
[V:3] B2c2d2B2 | 
[V:4] z8 | 
[V:5] G,4G,4 | 
[V:1] G4G4 | 
[V:2] e4c3d | 
[V:3] c4G4 | 
[V:4] C8 | 
[V:5] C,4C,4 | 
[V:1] E8 | 
[V:2] e2f2g2e2 | 
[V:3] G8 | 
[V:4] C4C4 | 
[V:5] C,8 | 
[V:1] z4A4- | 
[V:2] f8- | 
[V:3] z4d4 | 
[V:4] F,4F,4 | 
[V:5] z4D,3E, | 
[V:1] A4A4 | 
[V:2] f8 | 
[V:3] c3BA4 | 
[V:4] F,8 | 
[V:5] F,2G,2A,2F,2 | 
[V:1] B4B4- | 
[V:2] z4d4 | 
[V:3] G4d4- | 
[V:4] z4G,3A, | 
[V:5] G,8 | 
[V:1] B4G4- | 
[V:2] d4d4 | 
[V:3] d2B4G2 | 
[V:4] B,2C2D2B,2 | 
[V:5] G,8 | 
[V:1] G8 | 
[V:2] e4c3d | 
[V:3] G8- | 
[V:4] C8 | 
[V:5] C,8- | 
[V:1] E8 | 
[V:2] e2f2g2e2 | 
[V:3] G8 | 
[V:4] C8 | 
[V:5] C,8 | 
[V:1] z4A4- | 
[V:2] f8- | 
[V:3] z4d4 | 
[V:4] F,8- | 
[V:5] z4D,3E, | 
[V:1] A4c4 | 
[V:2] f8 | 
[V:3] c3BA4 | 
[V:4] F,8 | 
[V:5] F,2G,2A,2F,2 | 
[V:1] B4G4 | 
[V:2] z4c4 | 
[V:3] G4C4 | 
[V:4] z4G,3A, | 
[V:5] G,4E,4 | 
[V:1] F2A4GF | 
[V:2] d2d2d4 | 
[V:3] F8 | 
[V:4] B,2C2D2B,2 | 
[V:5] D,8 | 
[V:1] E8 | 
[V:2] e4c4 | 
[V:3] G4c4 | 
[V:4] C4A,4 | 
[V:5] C,8 | 
[V:1] z4B4 | 
[V:2] g8 | 
[V:3] B2d3cB2 | 
[V:4] G,8 | 
[V:5] z4G,4 | 
[V:1] c6B2 | 
[V:2] z4c4 | 
[V:3] A4F4- | 
[V:4] F,8 | 
[V:5] A,6G,2 | 
[V:1] A4G4 | 
[V:2] d4e4 | 
[V:3] F4G4 | 
[V:4] z4C4 | 
[V:5] F,4E,4 | 
[V:1] F3GA_BA2- | 
[V:2] f6e2 | 
[V:3] A8 | 
[V:4] D6C2 | 
[V:5] D,8- | 
[V:1] A2G4^F2 | 
[V:2] d8 | 
[V:3] z4d4 | 
[V:4] B,4A,4 | 
[V:5] D,8 | 
[V:1] G4z4 | 
[V:2] z4d4 | 
[V:3] d2d2B3A | 
[V:4] G,8- | 
[V:5] z8 | 
[V:1] d4d2d2 | 
[V:2] d2d2B3A | 
[V:3] G4z2G2 | 
[V:4] G,8 | 
[V:5] z8 | 
[V:1] B3AG4 | 
[V:2] G4z2G2 | 
[V:3] G2G2E3D | 
[V:4] z8 | 
[V:5] z8 | 
[V:1] z2G2G2G2 | 
[V:2] G2G2c3B | 
[V:3] C4z2C2 | 
[V:4] z8 | 
[V:5] z8 | 
[V:1] c3BA2G2 | 
[V:2] A2G2F2E2- | 
[V:3] C2C2F2C2 | 
[V:4] z8 | 
[V:5] z8 | 
[V:1] F4E4 | 
[V:2] EDd4^c2 | 
[V:3] F3GA4 | 
[V:4] z8 | 
[V:5] z8 | 
[V:1] D8 | 
[V:2] d4z2d2 | 
[V:3] D8 | 
[V:4] z8 | 
[V:5] z2D,2D,2D,2 | 
[V:1] z8 | 
[V:2] d2d2g3f | 
[V:3] z4z2D2 | 
[V:4] z8 | 
[V:5] G,3F,E,2D,2 | 
[V:1] z2G2G2G2 | 
[V:2] e2c2d4 | 
[V:3] E3FD2D2 | 
[V:4] z2G,2G,2G,2 | 
[V:5] C,4B,,4 | 
[V:1] A3GF2ED | 
[V:2] c8 | 
[V:3] E4c2B2 | 
[V:4] C3B,A,2G,2 | 
[V:5] A,,8 | 
[V:1] E2D4^C2 | 
[V:2] z8 | 
[V:3] A2A4G2 | 
[V:4] F,4E,4 | 
[V:5] z8 | 
[V:1] D8 | 
[V:2] z4z2d2 | 
[V:3] A8 | 
[V:4] D,8 | 
[V:5] z2D,2D,2D,2 | 
[V:1] z8 | 
[V:2] d2d2g3f | 
[V:3] z2G2G2A2 | 
[V:4] z8 | 
[V:5] G,3F,E,2D,2 | 
[V:1] z8 | 
[V:2] e2c2d4 | 
[V:3] c2BAGABG | 
[V:4] z2G,2G,2G,2 | 
[V:5] C,4B,,4 | 
[V:1] z4A4- | 
[V:2] c4d2e2 | 
[V:3] A4A4- | 
[V:4] C3B,A,2G,2 | 
[V:5] A,,4D,4- | 
[V:1] A4A4 | 
[V:2] f2d4^c2 | 
[V:3] A4A4 | 
[V:4] F,4E,4 | 
[V:5] D,4A,,4 | 
[V:1] F4z2D2 | 
[V:2] d8 | 
[V:3] A4B4 | 
[V:4] D,4G,4- | 
[V:5] D,4G,,4 | 
[V:1] E4F4 | 
[V:2] z4d4 | 
[V:3] c4d4 | 
[V:4] G,4D,4 | 
[V:5] C,4B,,2A,,2 | 
[V:1] G4z2E2 | 
[V:2] d4e4 | 
[V:3] B4z4 | 
[V:4] G,4C,4 | 
[V:5] G,,4z2C,2 | 
[V:1] F4G4 | 
[V:2] d4B4 | 
[V:3] z4z2G2 | 
[V:4] F,4E,2D,2 | 
[V:5] D,4E,4 | 
[V:1] A4A2d2- | 
[V:2] c4d4 | 
[V:3] E2A3GFE | 
[V:4] C,4z2F,2 | 
[V:5] A,,4D,4 | 
[V:1] d2c4BA | 
[V:2] z8 | 
[V:3] D2G4^F2 | 
[V:4] G,4A,4 | 
[V:5] B,,2C,2A,,4 | 
[V:1] B8- | 
[V:2] d4d2d2 | 
[V:3] G8- | 
[V:4] D,8- | 
[V:5] G,,8- | 
[V:1] B8 ||  
[V:2] d8 ||  
[V:3] G8 ||  
[V:4] D,8 ||  
[V:5] G,,8 ||  
[V:1]  [K:C] [K:clef=treble][M:2/1]z8 | 
[V:2]  [K:C] [K:clef=treble-8][M:2/1]z8 | 
[V:3]  [K:C] [K:clef=treble-8][M:2/1]d4B2c2 | 
[V:4]  [K:C] [K:clef=bass][M:2/1]z8 | 
[V:5]  [K:C] [K:clef=bass][M:2/1]z8 | 
[V:1] z8 | 
[V:2] z4g4 | 
[V:3] A4G4 | 
[V:4] z8 | 
[V:5] z8 | 
[V:1] z8 | 
[V:2] e2f2d4 | 
[V:3] z2A2B4 | 
[V:4] z8 | 
[V:5] z8 | 
[V:1] z4c4 | 
[V:2] c4z2c2 | 
[V:3] c4A4 | 
[V:4] z8 | 
[V:5] z8 | 
[V:1] A2B2G4 | 
[V:2] d4e4 | 
[V:3] F2G2E4 | 
[V:4] z8 | 
[V:5] z8 | 
[V:1] F4z2F2 | 
[V:2] f4d4 | 
[V:3] D3EFGA2 | 
[V:4] z8 | 
[V:5] z4D,4 | 
[V:1] G4A4 | 
[V:2] z8 | 
[V:3] D2G4^F2 | 
[V:4] z8 | 
[V:5] B,,2C,2A,,4 | 
[V:1] B4G4 | 
[V:2] d4G2B2- | 
[V:3] G8 | 
[V:4] z4G,4 | 
[V:5] G,,2G,,2C,2B,,2 | 
[V:1] z8 | 
[V:2] BAA4^G2 | 
[V:3] z8 | 
[V:4] E,2F,2D,4 | 
[V:5] C,2A,,2B,,4 | 
[V:1] z8 | 
[V:2] A3Bcde2 | 
[V:3] z8 | 
[V:4] C,2C,2F,2E,2 | 
[V:5] A,,8- | 
[V:1] z8 | 
[V:2] A2d4^c2 | 
[V:3] z4A4 | 
[V:4] F,2D,2E,4 | 
[V:5] A,,8 | 
[V:1] z4A4 | 
[V:2] d8- | 
[V:3] A2A2F3E | 
[V:4] D,8- | 
[V:5] z8 | 
[V:1] A2A2F3E | 
[V:2] d8 | 
[V:3] D2A2_B2A2- | 
[V:4] D,8 | 
[V:5] z8 | 
[V:1] D2A2_B2A2- | 
[V:2] z8 | 
[V:3] A2GFG2F2- | 
[V:4] z8 | 
[V:5] z8 | 
[V:1] A2GFG4 | 
[V:2] z2d4c2 | 
[V:3] F2EDE4 | 
[V:4] z8 | 
[V:5] z8 | 
[V:1] F4z4 | 
[V:2] d2c2d2e2 | 
[V:3] D2A2_B2A2- | 
[V:4] z8 | 
[V:5] z8 | 
[V:1] z2A2_B2A2- | 
[V:2] f4e2f2- | 
[V:3] A2GFG2F2 | 
[V:4] z8 | 
[V:5] z8 | 
[V:1] A2GFG4 | 
[V:2] fed4^c2 | 
[V:3] D2F2E4 | 
[V:4] z8 | 
[V:5] z8 | 
[V:1] F8 | 
[V:2] d2f2f2f2 | 
[V:3] D4z2A2 | 
[V:4] z8 | 
[V:5] A,4A,2A,2 | 
[V:1] z4G4 | 
[V:2] f2e2c2dc | 
[V:3] A2B2G2G2 | 
[V:4] z8 | 
[V:5] F,3G,E,2E,2 | 
[V:1] F2F2F3D | 
[V:2] d8 | 
[V:3] A8 | 
[V:4] D4D2D2 | 
[V:5] D,8 | 
[V:1] EDG4^F2 | 
[V:2] z4z2d2 | 
[V:3] z4z2D2 | 
[V:4] B,3CA,2A,2 | 
[V:5] z4z2D,2 | 
[V:1] G8 | 
[V:2] c2d2B2c2 | 
[V:3] G2A2B2G2 | 
[V:4] G,8 | 
[V:5] E,2F,2G,2E,2 | 
[V:1] z4z2E2 | 
[V:2] d2d2e4 | 
[V:3] A2B2c4 | 
[V:4] z4z2G,2 | 
[V:5] F,2G,2C,4 | 
[V:1] F2G2E2F2 | 
[V:2] z8 | 
[V:3] z8 | 
[V:4] A,2B,2C2A,2 | 
[V:5] z8 | 
[V:1] G2G2A4 | 
[V:2] z4z2d2 | 
[V:3] z4z2F2 | 
[V:4] B,2C2F,4 | 
[V:5] z4z2D,2 | 
[V:1] z8 | 
[V:2] c2d2B2c2 | 
[V:3] G2A2B2G2 | 
[V:4] z8 | 
[V:5] E,2F,2G,2E,2 | 
[V:1] z4z2E2 | 
[V:2] d2d2e4 | 
[V:3] A2B2c4 | 
[V:4] z4z2G,2 | 
[V:5] F,2G,2C,4 | 
[V:1] F2G2E2F2 | 
[V:2] z8 | 
[V:3] z8 | 
[V:4] A,2B,2C2A,2 | 
[V:5] z8 | 
[V:1] G2G2A4 | 
[V:2] z4z2f2- | 
[V:3] z4A4- | 
[V:4] B,2C2F,4 | 
[V:5] z4z2D,2- | 
[V:1] z8 | 
[V:2] f2e2f2d2- | 
[V:3] A4A4 | 
[V:4] z8 | 
[V:5] D,2C,2D,2F,2- | 
[V:1] z4z2B2 | 
[V:2] dcB2A2G2 | 
[V:3] F4D2D2- | 
[V:4] z4z2G,2- | 
[V:5] F,E,D,C,D,2G,,2 | 
[V:1] c2A2B2d2- | 
[V:2] c4B4 | 
[V:3] D2C2D4 | 
[V:4] G,2F,2G,2B,2- | 
[V:5] A,,4G,,4 | 
[V:1] dcBAG2E2 | 
[V:2] z8 | 
[V:3] G3AB2c2- | 
[V:4] B,A,G,F,G,2C,2 | 
[V:5] z8 | 
[V:1] F4E4 | 
[V:2] z4z2e2 | 
[V:3] c2B2c4 | 
[V:4] D,4C,4 | 
[V:5] z4G,4 | 
[V:1] z8 | 
[V:2] fedcBAcB | 
[V:3] A3GF2E2- | 
[V:4] z8 | 
[V:5] F,2F,2D,2A,,2 | 
[V:1] z2B2c2A2 | 
[V:2] AGG4^F2 | 
[V:3] E2D4C2 | 
[V:4] z4C4 | 
[V:5] D,2G,,2A,,4 | 
[V:1] B2d3cBA | 
[V:2] G8 | 
[V:3] D4G3A | 
[V:4] B,2B,2G,2D,2 | 
[V:5] G,,8 | 
[V:1] G2E2F4 | 
[V:2] z8 | 
[V:3] B2c4B2 | 
[V:4] G,2C,2D,4 | 
[V:5] z8 | 
[V:1] E4E4 | 
[V:2] g8 | 
[V:3] c4c4 | 
[V:4] C,8 | 
[V:5] C,4C,4 | 
[V:1] G4G4 | 
[V:2] e4e4 | 
[V:3] c4c4 | 
[V:4] z8 | 
[V:5] C,4C,4 | 
[V:1] F4A4- | 
[V:2] d4f4- | 
[V:3] A8 | 
[V:4] F,8 | 
[V:5] D,4D,4 | 
[V:1] A4c4 | 
[V:2] f2edc2d2 | 
[V:3] A4A4 | 
[V:4] F,4F,4 | 
[V:5] F,4F,4 | 
[V:1] c2B4AG | 
[V:2] e2d4c2 | 
[V:3] G4E4 | 
[V:4] G,4G,4 | 
[V:5] E,8 | 
[V:1] F2D2F2G2 | 
[V:2] d8 | 
[V:3] F6D2 | 
[V:4] _B,4B,4 | 
[V:5] D,8- | 
[V:1] AGFEF4 | 
[V:2] d8 | 
[V:3] D4z2D2- | 
[V:4] A,8 | 
[V:5] D,8 | 
[V:1] G4z2D2- | 
[V:2] B8 | 
[V:3] D2D2E2D2 | 
[V:4] G,8- | 
[V:5] G,,8- | 
[V:1] D2D2E2D2 | 
[V:2] z8 | 
[V:3] G4z2G2- | 
[V:4] G,8 | 
[V:5] G,,8 | 
[V:1] G4z2G2- | 
[V:2] z8 | 
[V:3] G2G2A2G2 | 
[V:4] C,8- | 
[V:5] z8 | 
[V:1] G2G2A2G2 | 
[V:2] z8 | 
[V:3] c8 | 
[V:4] C,8 | 
[V:5] z8 | 
[V:1] c4z2A2 | 
[V:2] z8 | 
[V:3] z2A2B2d2- | 
[V:4] z8 | 
[V:5] z8 | 
[V:1] B2d3cBA | 
[V:2] z4z2d2 | 
[V:3] dcBAG2B2 | 
[V:4] z8 | 
[V:5] z8 | 
[V:1] G2B2c2d2- | 
[V:2] e2g4fe | 
[V:3] c2G2c2B2 | 
[V:4] z8 | 
[V:5] z8 | 
[V:1] dcc4B2 | 
[V:2] fedcd4 | 
[V:3] c2A2G4 | 
[V:4] z8 | 
[V:5] z8 | 
[V:1] c8 | 
[V:2] c2ABcde2- | 
[V:3] C8 | 
[V:4] z8 | 
[V:5] z4z2C,2- | 
[V:1] z8 | 
[V:2] e2d4^c2 | 
[V:3] z8 | 
[V:4] z8 | 
[V:5] C,2D,2E,4 | 
[V:1] z8 | 
[V:2] d8 | 
[V:3] z8 | 
[V:4] z4z2F,2- | 
[V:5] D,2F,2G,2A,2- | 
[V:1] z8 | 
[V:2] z8 | 
[V:3] z8 | 
[V:4] F,2G,2A,4 | 
[V:5] A,2G,4^F,2 | 
[V:1] z8 | 
[V:2] z8 | 
[V:3] z8 | 
[V:4] G,2B,2C2D2- | 
[V:5] G,2G,2G,2F,E, | 
[V:1] z8 | 
[V:2] z4d4 | 
[V:3] z8 | 
[V:4] D2C4B,2 | 
[V:5] F,E,D,C,D,4 | 
[V:1] z8 | 
[V:2] e2e2e2dc | 
[V:3] z8 | 
[V:4] C2C2C2B,A, | 
[V:5] C,8 | 
[V:1] z4G4 | 
[V:2] dcBAB4 | 
[V:3] z8 | 
[V:4] B,A,G,F,G,4 | 
[V:5] z8 | 
[V:1] A2A2A2GF | 
[V:2] A4A4 | 
[V:3] z8 | 
[V:4] F,8 | 
[V:5] z8 | 
[V:1] GFEDE2B2 | 
[V:2] c2BAc2B2 | 
[V:3] z4G4 | 
[V:4] z8 | 
[V:5] z8 | 
[V:1] c6BA | 
[V:2] A2e2f3e | 
[V:3] A2A2A2GF | 
[V:4] z8 | 
[V:5] z8 | 
[V:1] B2A4^G2 | 
[V:2] d2c2B4 | 
[V:3] GFEDE4 | 
[V:4] z8 | 
[V:5] z8 | 
[V:1] A8 | 
[V:2] A2c3BA2- | 
[V:3] z4c4 | 
[V:4] z8 | 
[V:5] z8 | 
[V:1] z4c4 | 
[V:2] A2G2A4 | 
[V:3] B4A2A2- | 
[V:4] z8 | 
[V:5] z8 | 
[V:1] B4A2A2- | 
[V:2] E4z4 | 
[V:3] A2G2A2F2 | 
[V:4] z8 | 
[V:5] z8 | 
[V:1] A2G2A2F2 | 
[V:2] e2e4d2 | 
[V:3] E4z4 | 
[V:4] z8 | 
[V:5] z8 | 
[V:1] E4z4 | 
[V:2] e2c2B4 | 
[V:3] A2A4G2 | 
[V:4] z8 | 
[V:5] z8 | 
[V:1] A2A4G2 | 
[V:2] z4e2e2- | 
[V:3] A2F2E4 | 
[V:4] z8 | 
[V:5] z8 | 
[V:1] A2F2E2A2- | 
[V:2] e2d2e2f2- | 
[V:3] F3EC2D2- | 
[V:4] z8 | 
[V:5] z8 | 
[V:1] AGF2E4 | 
[V:2] fed4^c2 | 
[V:3] DEFGA4 | 
[V:4] z8 | 
[V:5] z8 | 
[V:1] D4z4 | 
[V:2] d4z4 | 
[V:3] z2F2F2E2 | 
[V:4] z8 | 
[V:5] D,2D,4C,2 | 
[V:1] z8 | 
[V:2] z8 | 
[V:3] F2D2C2F2 | 
[V:4] z8 | 
[V:5] D,2B,,2A,,2D,2- | 
[V:1] z8 | 
[V:2] z4A4 | 
[V:3] E2D4C2 | 
[V:4] G,2G,4^F,2 | 
[V:5] D,C,B,,2A,,4 | 
[V:1] G6G2 | 
[V:2] B3cd2e2 | 
[V:3] D4G4- | 
[V:4] G,2E,2D,2G,2- | 
[V:5] G,,8- | 
[V:1] G4G4 | 
[V:2] d2c4B2 | 
[V:3] G2G2G2G2 | 
[V:4] G,F,E,2D,4 | 
[V:5] G,,8 | 
[V:1] E3FG2A2 | 
[V:2] c8- | 
[V:3] G4E3F | 
[V:4] C,8- | 
[V:5] z8 | 
[V:1] G2c3BAG | 
[V:2] c8 | 
[V:3] G2A2G2c2- | 
[V:4] C,8 | 
[V:5] z8 | 
[V:1] A2G4^F2 | 
[V:2] z8 | 
[V:3] cBAGA4 | 
[V:4] z8 | 
[V:5] z8 | 
[V:1] G4z2G2- | 
[V:2] d6d2 | 
[V:3] G8 | 
[V:4] z8 | 
[V:5] G,6G,2 | 
[V:1] G2G2G2G2 | 
[V:2] d4e4 | 
[V:3] z8 | 
[V:4] z8 | 
[V:5] G,4G,4 | 
[V:1] A4A2c2- | 
[V:2] f4f4 | 
[V:3] z8 | 
[V:4] C6C2 | 
[V:5] F,4F,4 | 
[V:1] cBAGA4 | 
[V:2] f4f4 | 
[V:3] z8 | 
[V:4] C4C4 | 
[V:5] F,4F,4 | 
[V:1] B3GG2G2 | 
[V:2] d4d4 | 
[V:3] z8 | 
[V:4] B,4B,4 | 
[V:5] G,4G,4 | 
[V:1] G2G2G2G2 | 
[V:2] d2d2e2e2 | 
[V:3] z8 | 
[V:4] B,4B,4 | 
[V:5] G,2G,2G,2G,2 | 
[V:1] A3Bc2c2- | 
[V:2] f4f4 | 
[V:3] z8 | 
[V:4] C4C4 | 
[V:5] F,4F,4 | 
[V:1] cBAGA3B | 
[V:2] f4f4 | 
[V:3] z8 | 
[V:4] C2C2C2C2 | 
[V:5] F,4F,4 | 
[V:1] B6G2 | 
[V:2] d8 | 
[V:3] z4G4 | 
[V:4] B,4B,4 | 
[V:5] G,8- | 
[V:1] G8 | 
[V:2] z4g4 | 
[V:3] G2E3FG2 | 
[V:4] B,4B,4 | 
[V:5] G,8 | 
[V:1] z8 | 
[V:2] g2e3fg2 | 
[V:3] C8 | 
[V:4] C8- | 
[V:5] z8 | 
[V:1] z4c4 | 
[V:2] c3BA4 | 
[V:3] z2A2A4 | 
[V:4] C8 | 
[V:5] z8 | 
[V:1] c2A3Bc2 | 
[V:2] z8 | 
[V:3] A2F3GA2 | 
[V:4] z8 | 
[V:5] z8 | 
[V:1] F3ED4 | 
[V:2] z2d2d4 | 
[V:3] D6EF | 
[V:4] z8 | 
[V:5] z8 | 
[V:1] z2d2d4 | 
[V:2] d2B3cd2 | 
[V:3] G8 | 
[V:4] z8 | 
[V:5] z8 | 
[V:1] d2B3cd2 | 
[V:2] G4z4 | 
[V:3] z8 | 
[V:4] z8 | 
[V:5] z4G,4 | 
[V:1] B2G3AB2 | 
[V:2] g4g2e2- | 
[V:3] z8 | 
[V:4] z8 | 
[V:5] G,2E,3F,G,2 | 
[V:1] E8 | 
[V:2] efg2c3d | 
[V:3] z4A4 | 
[V:4] z4C4 | 
[V:5] C,3B,,A,,4 | 
[V:1] z8 | 
[V:2] e2f4e2 | 
[V:3] A2F3GA2 | 
[V:4] C2A,3B,C2 | 
[V:5] z2A,2A,4 | 
[V:1] z8 | 
[V:2] f8 | 
[V:3] D2A3GFE | 
[V:4] F,3E,D,4 | 
[V:5] A,2F,3G,A,2 | 
[V:1] z4z2A2 | 
[V:2] z8 | 
[V:3] F2G4^F2 | 
[V:4] z2D2D4 | 
[V:5] D,2B,,3C,D,2 | 
[V:1] B2d3cBA | 
[V:2] z8 | 
[V:3] G8 | 
[V:4] D2B,3CD2 | 
[V:5] G,,8 | 
[V:1] B2G3FED | 
[V:2] z8 | 
[V:3] z2G2A2B2 | 
[V:4] G,2E,3F,G,2 | 
[V:5] z8 | 
[V:1] E4C4 | 
[V:2] z4z2c2 | 
[V:3] c8 | 
[V:4] C,8 | 
[V:5] z8 | 
[V:1] z8 | 
[V:2] d2e2f4 | 
[V:3] B2G2A2B2 | 
[V:4] z8 | 
[V:5] z8 | 
[V:1] z4z2G2 | 
[V:2] e2c2d2e2 | 
[V:3] c4G4 | 
[V:4] z8 | 
[V:5] z8 | 
[V:1] A2B2c4 | 
[V:2] f4e2c2 | 
[V:3] z2d2c2A2 | 
[V:4] z8 | 
[V:5] z8 | 
[V:1] B2G2A2B2 | 
[V:2] d2e2f2g2- | 
[V:3] G2c3BAG | 
[V:4] z8 | 
[V:5] z8 | 
[V:1] c4B3A | 
[V:2] gff2g3f | 
[V:3] A4G4 | 
[V:4] z8 | 
[V:5] z8 | 
[V:1] G2F2G2E2 | 
[V:2] e2d2e2c2- | 
[V:3] C2D2C3D | 
[V:4] z8 | 
[V:5] z8 | 
[V:1] E2DCD4 | 
[V:2] c2BAB4 | 
[V:3] EFGAG4 | 
[V:4] z8 | 
[V:5] z8 | 
[V:1] [M:3/1]C4G4G4 | 
[V:2] [M:3/1]c12 | 
[V:3] [M:3/1]C12 | 
[V:4] z12 | 
[V:5] [M:3/1]G,8G,4 | 
[V:1] G4A4B4 | 
[V:2] z12 | 
[V:3] z12 | 
[V:4] z12 | 
[V:5] E,4F,4G,4 | 
[V:1] c8A4- | 
[V:2] e8f4 | 
[V:3] z12 | 
[V:4] [M:3/1]C8C4 | 
[V:5] A,8F,4- | 
[V:1] A4G8 | 
[V:2] d4e4e4 | 
[V:3] z4z4G4 | 
[V:4] A,4B,4C4 | 
[V:5] F,4E,8 | 
[V:1] F12 | 
[V:2] f4a6g2 | 
[V:3] A8F4 | 
[V:4] D8B,4- | 
[V:5] D,12 | 
[V:1] z4z4A4 | 
[V:2] g6^f2^f4 | 
[V:3] G4D8 | 
[V:4] B,4A,8 | 
[V:5] z12 | 
[V:1] B4d8 | 
[V:2] g12 | 
[V:3] G6A2B4 | 
[V:4] G,12 | 
[V:5] G,8G,4 | 
[V:1] c6B2B4 | 
[V:2] z12 | 
[V:3] c4d8 | 
[V:4] z12 | 
[V:5] E,4F,4G,4 | 
[V:1] c8A4- | 
[V:2] e8f4 | 
[V:3] c8F4- | 
[V:4] C8C4 | 
[V:5] A,6G,2A,4 | 
[V:1] A4G8 | 
[V:2] d4e4e4 | 
[V:3] F4G8 | 
[V:4] A,4B,4C4 | 
[V:5] F,4E,8 | 
[V:1] F12 | 
[V:2] A8d4- | 
[V:3] A4F4A4 | 
[V:4] D6C2D4 | 
[V:5] D,6E,2F,2D,2 | 
[V:1] z4z4A4 | 
[V:2] d4d8 | 
[V:3] G4D8 | 
[V:4] B,4A,8 | 
[V:5] G,8^F,4 | 
[V:1] B4d8 | 
[V:2] d6c2d4 | 
[V:3] G12 | 
[V:4] G,6A,2B,2G,2 | 
[V:5] G,2A,2B,2C2B,4 | 
[V:1] c4A4d4 | 
[V:2] e4f4g2f2 | 
[V:3] z12 | 
[V:4] C8B,4 | 
[V:5] A,8G,4 | 
[V:1] c4A4B2A2 | 
[V:2] e2d2c4B4 | 
[V:3] z12 | 
[V:4] C2D2E2F2E4 | 
[V:5] A,6F,2G,2F,2 | 
[V:1] G2F2G6E2 | 
[V:2] A8G4 | 
[V:3] z4z4C4 | 
[V:4] D8^C4 | 
[V:5] E,2D,2E,8 | 
[V:1] F2G2A2B2A4 | 
[V:2] A12 | 
[V:3] F4F4C4 | 
[V:4] D6B,2C2B,2 | 
[V:5] D,4D,4A,,4 | 
[V:1] G6^F2F4 | 
[V:2] z4z4d4 | 
[V:3] D4E4F4 | 
[V:4] A,2G,2A,8 | 
[V:5] B,,4C,4D,4 | 
[V:1] G12- | 
[V:2] B4e6d2 | 
[V:3] D4C6D2 | 
[V:4] G,12- | 
[V:5] G,,4C,2D,2E,2F,2 | 
[V:1] G12- | 
[V:2] B4e4d4 | 
[V:3] E2F2G2A2B2c2 | 
[V:4] G,12- | 
[V:5] G,4C,4B,,4 | 
[V:1] G12- | 
[V:2] B4e6d2 | 
[V:3] d4G6F2 | 
[V:4] G,12- | 
[V:5] G,,4C,4B,,4 | 
[V:1] G12- | 
[V:2] B4c8 | 
[V:3] E2D2E8 | 
[V:4] G,12- | 
[V:5] G,,4C,8 | 
[V:1] G12- | 
[V:2] d12- | 
[V:3] D12- | 
[V:4] G,12- | 
[V:5] G,,12- | 
[V:1] G12- | 
[V:2] d12 | 
[V:3] D12 | 
[V:4] G,12- | 
[V:5] G,,12- | 
[V:1] G12 |]  
[V:2] d12 |]  
[V:3] D12 |]  
[V:4] G,12 |]  
[V:5] G,,12 |]  



